dist/static/img/support/adv-2.svg

<svg width="48" height="48" viewBox="0 0 48 48" fill="none" xmlns="http://www.w3.org/2000/svg">
<path d="M2.95239 43.8691L4.88086 45.7976C4.95048 45.8673 5.03315 45.9225 5.12414 45.9602C5.21512 45.9979 5.31265 46.0173 5.41113 46.0173C5.50962 46.0173 5.60715 45.9979 5.69813 45.9602C5.78912 45.9225 5.87179 45.8673 5.94141 45.7976L6.61377 45.1252C6.94263 45.2941 7.28455 45.4361 7.63623 45.55V46.5C7.63617 46.5985 7.65553 46.6961 7.69321 46.7871C7.73088 46.8781 7.78612 46.9608 7.85577 47.0305C7.92543 47.1001 8.00813 47.1554 8.09915 47.193C8.19017 47.2307 8.28772 47.2501 8.38623 47.25H11.1138C11.2123 47.2501 11.3098 47.2307 11.4008 47.193C11.4919 47.1554 11.5746 47.1001 11.6442 47.0305C11.7139 46.9608 11.7691 46.8781 11.8068 46.7871C11.8445 46.6961 11.8638 46.5985 11.8638 46.5V45.55C12.2155 45.4364 12.5575 45.2943 12.8862 45.1252L13.5586 45.7976C13.6282 45.8673 13.7109 45.9225 13.8019 45.9602C13.8929 45.9979 13.9904 46.0173 14.0889 46.0173C14.1874 46.0173 14.2849 45.9979 14.3759 45.9602C14.4669 45.9225 14.5495 45.8673 14.6191 45.7976L16.5476 43.8691C16.6173 43.7995 16.6725 43.7169 16.7102 43.6259C16.7479 43.5349 16.7673 43.4374 16.7673 43.3389C16.7673 43.2404 16.7479 43.1429 16.7102 43.0519C16.6725 42.9609 16.6173 42.8782 16.5476 42.8086L15.8752 42.1362C16.0441 41.8074 16.1861 41.4654 16.3001 41.1138H17.25C17.3485 41.1138 17.4461 41.0945 17.5371 41.0568C17.6281 41.0191 17.7108 40.9639 17.7805 40.8942C17.8501 40.8246 17.9054 40.7419 17.943 40.6509C17.9807 40.5598 18.0001 40.4623 18 40.3638V37.6362C18.0001 37.5377 17.9807 37.4402 17.943 37.3491C17.9054 37.2581 17.8501 37.1754 17.7805 37.1058C17.7108 37.0361 17.6281 36.9809 17.5371 36.9432C17.4461 36.9055 17.3485 36.8862 17.25 36.8862H16.3001C16.1864 36.5345 16.0443 36.1925 15.8752 35.8638L16.5476 35.1914C16.6173 35.1218 16.6725 35.0391 16.7102 34.9481C16.7479 34.8571 16.7673 34.7596 16.7673 34.6611C16.7673 34.5626 16.7479 34.4651 16.7102 34.3741C16.6725 34.2831 16.6173 34.2005 16.5476 34.1309L14.6191 32.2024C14.5495 32.1327 14.4669 32.0775 14.3759 32.0398C14.2849 32.0021 14.1874 31.9827 14.0889 31.9827C13.9904 31.9827 13.8929 32.0021 13.8019 32.0398C13.7109 32.0775 13.6282 32.1327 13.5586 32.2024L12.8862 32.8748C12.5574 32.7059 12.2154 32.5639 11.8638 32.45V31.5C11.8638 31.4015 11.8445 31.3039 11.8068 31.2129C11.7691 31.1219 11.7139 31.0392 11.6442 30.9695C11.5746 30.8999 11.4919 30.8446 11.4008 30.807C11.3098 30.7693 11.2123 30.7499 11.1138 30.75H8.38623C8.28772 30.7499 8.19017 30.7693 8.09915 30.807C8.00813 30.8446 7.92543 30.8999 7.85577 30.9695C7.78612 31.0392 7.73088 31.1219 7.69321 31.2129C7.65553 31.3039 7.63617 31.4015 7.63623 31.5V32.45C7.28446 32.5636 6.94252 32.7057 6.61377 32.8748L5.94141 32.2024C5.87179 32.1327 5.78912 32.0775 5.69813 32.0398C5.60715 32.0021 5.50962 31.9827 5.41113 31.9827C5.31265 31.9827 5.21512 32.0021 5.12414 32.0398C5.03315 32.0775 4.95048 32.1327 4.88086 32.2024L2.95239 34.1309C2.88273 34.2005 2.82747 34.2831 2.78977 34.3741C2.75207 34.4651 2.73267 34.5626 2.73267 34.6611C2.73267 34.7596 2.75207 34.8571 2.78977 34.9481C2.82747 35.0391 2.88273 35.1218 2.95239 35.1914L3.62476 35.8638C3.45592 36.1926 3.31386 36.5346 3.19995 36.8862H2.25C2.15149 36.8862 2.05394 36.9055 1.96292 36.9432C1.8719 36.9809 1.7892 37.0361 1.71954 37.1058C1.64989 37.1754 1.59465 37.2581 1.55698 37.3491C1.5193 37.4402 1.49994 37.5377 1.5 37.6362V40.3638C1.49994 40.4623 1.5193 40.5598 1.55698 40.6509C1.59465 40.7419 1.64989 40.8246 1.71954 40.8942C1.7892 40.9639 1.8719 41.0191 1.96292 41.0568C2.05394 41.0945 2.15149 41.1138 2.25 41.1138H3.19995C3.31361 41.4655 3.45568 41.8075 3.62475 42.1362L2.95238 42.8086C2.88272 42.8782 2.82747 42.9609 2.78977 43.0519C2.75206 43.1429 2.73266 43.2404 2.73266 43.3389C2.73266 43.4374 2.75207 43.5349 2.78977 43.6259C2.82747 43.7169 2.88273 43.7995 2.95239 43.8691ZM3.26075 39.6138H3V38.3862H3.26075C3.56562 38.3843 3.86187 38.2848 4.10619 38.1024C4.3505 37.92 4.53007 37.6643 4.61865 37.3726C4.71194 37.0815 4.82954 36.7987 4.97021 36.5273C5.11477 36.2579 5.16923 35.9492 5.1256 35.6466C5.08198 35.344 4.94256 35.0633 4.72778 34.8457L4.54322 34.6611L5.41113 33.7932L5.59571 33.9778C5.81331 34.1925 6.09401 34.332 6.39664 34.3756C6.69927 34.4192 7.00792 34.3648 7.27734 34.2202C7.54802 34.0798 7.83001 33.9625 8.12034 33.8694C8.41253 33.781 8.66877 33.6015 8.85157 33.357C9.03436 33.1125 9.13411 32.816 9.13621 32.5107V32.25H10.3637V32.5107C10.3657 32.8156 10.4652 33.1119 10.6476 33.3562C10.8299 33.6005 11.0857 33.7801 11.3774 33.8686C11.6685 33.9619 11.9513 34.0795 12.2227 34.2202C12.4921 34.3648 12.8007 34.4193 13.1034 34.3756C13.406 34.332 13.6867 34.1926 13.9043 33.9778L14.0889 33.7932L14.9568 34.6611L14.7722 34.8457C14.5575 35.0633 14.418 35.344 14.3744 35.6466C14.3308 35.9493 14.3852 36.2579 14.5298 36.5273C14.6701 36.798 14.7875 37.08 14.8806 37.3703C14.969 37.6625 15.1485 37.9188 15.393 38.1016C15.6375 38.2844 15.934 38.3841 16.2393 38.3862H16.5V39.6137H16.2393C15.9344 39.6157 15.6381 39.7152 15.3938 39.8976C15.1495 40.0799 14.9699 40.3357 14.8814 40.6274C14.7881 40.9185 14.6705 41.2013 14.5298 41.4727C14.3852 41.7421 14.3308 42.0507 14.3744 42.3534C14.418 42.656 14.5574 42.9367 14.7722 43.1543L14.9568 43.3389L14.0889 44.2068L13.9043 44.0222C13.6867 43.8074 13.406 43.668 13.1034 43.6244C12.8007 43.5807 12.4921 43.6352 12.2227 43.7798C11.952 43.9201 11.67 44.0375 11.3797 44.1306C11.0875 44.219 10.8312 44.3985 10.6484 44.643C10.4656 44.8875 10.3659 45.184 10.3638 45.4893V45.75H9.13623V45.4893C9.13425 45.1844 9.0348 44.8881 8.85242 44.6438C8.67004 44.3995 8.41429 44.2199 8.12256 44.1314C7.83145 44.0381 7.54871 43.9205 7.27731 43.7798C7.00789 43.6352 6.69924 43.5807 6.39661 43.6244C6.09398 43.668 5.81328 43.8074 5.59567 44.0222L5.4111 44.2068L4.54322 43.3389L4.72778 43.1543C4.94256 42.9367 5.08199 42.656 5.12562 42.3534C5.16926 42.0507 5.11481 41.7421 4.97025 41.4727C4.8299 41.202 4.71255 40.92 4.61942 40.6297C4.53108 40.3375 4.35153 40.0812 4.10705 39.8984C3.86257 39.7156 3.566 39.6159 3.26075 39.6138Z" fill="white"/>
<path d="M9.75 43.125C10.5658 43.125 11.3634 42.8831 12.0417 42.4298C12.7201 41.9766 13.2488 41.3323 13.561 40.5786C13.8732 39.8248 13.9549 38.9954 13.7957 38.1953C13.6366 37.3951 13.2437 36.6601 12.6668 36.0832C12.0899 35.5063 11.3549 35.1134 10.5547 34.9543C9.75458 34.7951 8.92518 34.8768 8.17143 35.189C7.41769 35.5012 6.77345 36.0299 6.32019 36.7083C5.86693 37.3866 5.625 38.1842 5.625 39C5.62636 40.0936 6.06139 41.142 6.83469 41.9153C7.60798 42.6886 8.6564 43.1236 9.75 43.125ZM9.75 36.375C10.2692 36.375 10.7767 36.529 11.2084 36.8174C11.6401 37.1058 11.9765 37.5158 12.1752 37.9955C12.3739 38.4751 12.4258 39.0029 12.3246 39.5121C12.2233 40.0213 11.9733 40.489 11.6062 40.8562C11.239 41.2233 10.7713 41.4733 10.2621 41.5746C9.75291 41.6758 9.22511 41.6239 8.74546 41.4252C8.2658 41.2265 7.85583 40.8901 7.56739 40.4584C7.27895 40.0267 7.125 39.5192 7.125 39C7.12584 38.3041 7.40267 37.6369 7.89477 37.1448C8.38687 36.6527 9.05406 36.3758 9.75 36.375Z" fill="white"/>
<path d="M46.5 44.25V1.5C46.5001 1.40149 46.4807 1.30394 46.443 1.21292C46.4054 1.1219 46.3501 1.0392 46.2805 0.969545C46.2108 0.89989 46.1281 0.844647 46.0371 0.806976C45.9461 0.769305 45.8485 0.749944 45.75 0.75H15.75C15.6515 0.749944 15.5539 0.769305 15.4629 0.806976C15.3719 0.844647 15.2892 0.89989 15.2195 0.969545C15.1499 1.0392 15.0946 1.1219 15.057 1.21292C15.0193 1.30394 14.9999 1.40149 15 1.5V30.75H16.5V2.25H45V43.5H18V45H45.75C45.8485 45.0001 45.9461 44.9807 46.0371 44.943C46.1281 44.9053 46.2108 44.8501 46.2805 44.7805C46.3501 44.7108 46.4054 44.6281 46.443 44.5371C46.4807 44.4461 46.5001 44.3485 46.5 44.25Z" fill="white"/>
<path d="M20.25 12H26.25C26.3485 12.0001 26.4461 11.9807 26.5371 11.943C26.6281 11.9054 26.7108 11.8501 26.7805 11.7805C26.8501 11.7108 26.9054 11.6281 26.943 11.5371C26.9807 11.4461 27.0001 11.3485 27 11.25V5.25C27.0001 5.15149 26.9807 5.05394 26.943 4.96292C26.9054 4.8719 26.8501 4.7892 26.7805 4.71954C26.7108 4.64989 26.6281 4.59465 26.5371 4.55698C26.4461 4.5193 26.3485 4.49994 26.25 4.5H20.25C20.1515 4.49994 20.0539 4.5193 19.9629 4.55698C19.8719 4.59465 19.7892 4.64989 19.7195 4.71954C19.6499 4.7892 19.5946 4.8719 19.557 4.96292C19.5193 5.05394 19.4999 5.15149 19.5 5.25V11.25C19.4999 11.3485 19.5193 11.4461 19.557 11.5371C19.5946 11.6281 19.6499 11.7108 19.7195 11.7805C19.7892 11.8501 19.8719 11.9054 19.9629 11.943C20.0539 11.9807 20.1515 12.0001 20.25 12ZM22.0605 10.5L25.5 7.06054V10.5H22.0605ZM24.4395 6L21 9.43946V6H24.4395Z" fill="white"/>
<path d="M19.5 21C19.4999 21.0985 19.5193 21.1961 19.557 21.2871C19.5946 21.3781 19.6499 21.4608 19.7195 21.5305C19.7892 21.6001 19.8719 21.6554 19.9629 21.693C20.0539 21.7307 20.1515 21.7501 20.25 21.75H26.25C26.3485 21.7501 26.4461 21.7307 26.5371 21.693C26.6281 21.6554 26.7108 21.6001 26.7805 21.5305C26.8501 21.4608 26.9054 21.3781 26.943 21.2871C26.9807 21.1961 27.0001 21.0985 27 21V15C27.0001 14.9015 26.9807 14.8039 26.943 14.7129C26.9054 14.6219 26.8501 14.5392 26.7805 14.4695C26.7108 14.3999 26.6281 14.3446 26.5371 14.307C26.4461 14.2693 26.3485 14.2499 26.25 14.25H20.25C20.1515 14.2499 20.0539 14.2693 19.9629 14.307C19.8719 14.3446 19.7892 14.3999 19.7195 14.4695C19.6499 14.5392 19.5946 14.6219 19.557 14.7129C19.5193 14.8039 19.4999 14.9015 19.5 15V21ZM22.0605 20.25L25.5 16.8105V20.25H22.0605ZM24.4395 15.75L21 19.1895V15.75H24.4395Z" fill="white"/>
<path d="M19.5 30.75C19.4999 30.8485 19.5193 30.9461 19.557 31.0371C19.5946 31.1281 19.6499 31.2108 19.7195 31.2805C19.7892 31.3501 19.8719 31.4054 19.9629 31.443C20.0539 31.4807 20.1515 31.5001 20.25 31.5H26.25C26.3485 31.5001 26.4461 31.4807 26.5371 31.443C26.6281 31.4054 26.7108 31.3501 26.7805 31.2805C26.8501 31.2108 26.9054 31.1281 26.943 31.0371C26.9807 30.9461 27.0001 30.8485 27 30.75V24.75C27.0001 24.6515 26.9807 24.5539 26.943 24.4629C26.9054 24.3719 26.8501 24.2892 26.7805 24.2195C26.7108 24.1499 26.6281 24.0946 26.5371 24.057C26.4461 24.0193 26.3485 23.9999 26.25 24H20.25C20.1515 23.9999 20.0539 24.0193 19.9629 24.057C19.8719 24.0946 19.7892 24.1499 19.7195 24.2195C19.6499 24.2892 19.5946 24.3719 19.557 24.4629C19.5193 24.5539 19.4999 24.6515 19.5 24.75V30.75ZM21 25.5H25.5V30H21V25.5Z" fill="white"/>
<path d="M19.5 40.5C19.4999 40.5985 19.5193 40.6961 19.557 40.7871C19.5946 40.8781 19.6499 40.9608 19.7195 41.0305C19.7892 41.1001 19.8719 41.1554 19.9629 41.193C20.0539 41.2307 20.1515 41.2501 20.25 41.25H26.25C26.3485 41.2501 26.4461 41.2307 26.5371 41.193C26.6281 41.1554 26.7108 41.1001 26.7805 41.0305C26.8501 40.9608 26.9054 40.8781 26.943 40.7871C26.9807 40.6961 27.0001 40.5985 27 40.5V34.5C27.0001 34.4015 26.9807 34.3039 26.943 34.2129C26.9054 34.1219 26.8501 34.0392 26.7805 33.9695C26.7108 33.8999 26.6281 33.8446 26.5371 33.807C26.4461 33.7693 26.3485 33.7499 26.25 33.75H20.25C20.1515 33.7499 20.0539 33.7693 19.9629 33.807C19.8719 33.8446 19.7892 33.8999 19.7195 33.9695C19.6499 34.0392 19.5946 34.1219 19.557 34.2129C19.5193 34.3039 19.4999 34.4015 19.5 34.5V40.5ZM21 35.25H25.5V39.75H21V35.25Z" fill="white"/>
<path d="M42 7.5H29.25V9H42V7.5Z" fill="white"/>
<path d="M42 17.25H29.25V18.75H42V17.25Z" fill="white"/>
<path d="M42 27H29.25V28.5H42V27Z" fill="white"/>
<path d="M42 36.75H29.25V38.25H42V36.75Z" fill="white"/>
</svg>

<svg width="48" height="48" viewBox="0 0 48 48" fill="none" xmlns="http://www.w3.org/2000/svg"><path d="M2.952 43.87l1.929 1.928a.749.749 0 001.06 0l.673-.673c.329.17.67.311 1.022.425v.95a.75.75 0 00.75.75h2.728a.748.748 0 00.75-.75v-.95a6.812 6.812 0 001.022-.425l.673.673a.749.749 0 001.06 0l1.929-1.929a.748.748 0 000-1.06l-.673-.673c.17-.329.311-.67.425-1.022h.95a.75.75 0 00.75-.75v-2.728a.749.749 0 00-.75-.75h-.95a6.823 6.823 0 00-.425-1.022l.673-.673a.749.749 0 000-1.06l-1.929-1.929a.748.748 0 00-1.06 0l-.673.673a6.874 6.874 0 00-1.022-.425v-.95a.75.75 0 00-.75-.75H8.386a.748.748 0 00-.75.75v.95a6.812 6.812 0 00-1.022.425l-.673-.673a.749.749 0 00-1.06 0l-1.929 1.929a.749.749 0 000 1.06l.673.673c-.17.329-.311.67-.425 1.022h-.95a.75.75 0 00-.75.75v2.728a.75.75 0 00.75.75h.95c.114.352.256.694.425 1.022l-.673.673a.75.75 0 000 1.06zm.309-4.256H3v-1.228h.26a1.428 1.428 0 001.359-1.013c.093-.291.21-.574.351-.846a1.43 1.43 0 00-.242-1.681l-.185-.185.868-.868.185.185a1.431 1.431 0 001.681.242 5.39 5.39 0 01.843-.35 1.43 1.43 0 001.016-1.36v-.26h1.228v.26a1.429 1.429 0 001.013 1.359c.291.093.574.21.846.351a1.43 1.43 0 001.681-.242l.185-.185.868.868-.185.185a1.431 1.431 0 00-.242 1.681c.14.271.258.553.35.843a1.43 1.43 0 001.36 1.016h.26v1.228h-.26a1.429 1.429 0 00-1.359 1.013c-.093.291-.21.574-.351.846a1.43 1.43 0 00.242 1.681l.185.185-.868.868-.185-.185a1.43 1.43 0 00-1.681-.242 5.39 5.39 0 01-.843.35 1.43 1.43 0 00-1.016 1.36v.26H9.136v-.26a1.429 1.429 0 00-1.013-1.359 5.452 5.452 0 01-.846-.351 1.43 1.43 0 00-1.681.242l-.185.185-.868-.868.185-.185a1.43 1.43 0 00.242-1.681 5.445 5.445 0 01-.35-.843 1.43 1.43 0 00-1.36-1.016z" fill="#fff"/><path d="M9.75 43.125a4.125 4.125 0 100-8.25 4.125 4.125 0 000 8.25zm0-6.75a2.625 2.625 0 110 5.25 2.625 2.625 0 010-5.25zM46.5 44.25V1.5a.748.748 0 00-.75-.75h-30a.75.75 0 00-.75.75v29.25h1.5V2.25H45V43.5H18V45h27.75a.748.748 0 00.75-.75z" fill="#fff"/><path d="M20.25 12h6a.748.748 0 00.75-.75v-6a.748.748 0 00-.75-.75h-6a.75.75 0 00-.75.75v6a.748.748 0 00.75.75zm1.81-1.5l3.44-3.44v3.44h-3.44zM24.44 6L21 9.44V6h3.44zM19.5 21a.748.748 0 00.75.75h6A.748.748 0 0027 21v-6a.748.748 0 00-.75-.75h-6a.748.748 0 00-.75.75v6zm2.56-.75l3.44-3.44v3.44h-3.44zm2.38-4.5L21 19.19v-3.44h3.44zm-4.94 15a.748.748 0 00.75.75h6a.748.748 0 00.75-.75v-6a.748.748 0 00-.75-.75h-6a.748.748 0 00-.75.75v6zM21 25.5h4.5V30H21v-4.5zm-1.5 15a.748.748 0 00.75.75h6a.748.748 0 00.75-.75v-6a.748.748 0 00-.75-.75h-6a.748.748 0 00-.75.75v6zm1.5-5.25h4.5v4.5H21v-4.5zM42 7.5H29.25V9H42V7.5zm0 9.75H29.25v1.5H42v-1.5zM42 27H29.25v1.5H42V27zm0 9.75H29.25v1.5H42v-1.5z" fill="#fff"/></svg>
